X:3
T:The Kerfunten
C:Hammy Hamilton
N:Play 3 times through
N:Hurry the Jug, tune 3
Z:Gordon Turnbull, Edinburgh
Z:gturnbull@theflow.org.uk
Z:http://www.theflow.org.uk
R:Jig
M:6/8
K:G
~B3 BAG | Bdd efg | dBd gdB | ~A3 AGA |
~B3 BAG | Bdd efg | dBd gdB | AGF G2 A :||
~g3 gab | ~e3 edB | ~g3 gab | bag a2 b |
~g3 gab | ~e3 edB | dBd gdB | AGF G2 A :||
